X:1
T:State Anthem of the Soviet Union
T:State Anthem of the Soviet Union
T:A. V. Alexandrov
T:Arrangement for violin and viola by A. A. Evstyugov-Babaev
C:Alexander Alexandrov
%%score [ 1 2 ]
L:1/8
Q:1/4=70
M:4/4
K:D
V:1 treble nm="Violin"
V:2 alto nm="Viola"
V:1
"^Adagio maestoso"!f! d6 z!mf! A |: d2 A>B c2 F!>(! F | B2 A>G A2!>)!!mp! D D |!<(! E2 EF G2 GA | %4
 B2 cd!<)!!mf! e3 A | f2 e>d e2 c!>(!A | d2 c>B c2!>)!!mp! F F | B2 A>G A2 D D | %8
!<(! d2 c>B A cde!<)! |!mf! f4 edcd | e3 AA!>(! cde!>)! |!mp! d4 cBAB | c3 FF!p! A!<(!Bc | %13
 d2 B>c d2 B>c | d2 Bd!<)!!mf! g4 |!f! g4 fede |!>(! f3 d d4!>)! |!mf! e4 dcBc | %18
!>(! d3 B!>)!!mp! B4 |!mf! d2 cB A2 D>!<(!D |1 d2!<)!!f! cB A2 z!mf! A :|2 A4 B2 c2 || %22
!f! !fermata!d8 |] %23
V:2
"D"!mf! [DF]6 z2 |:"D"!p! D4"F#m" A,4 |"G"!>(! G,4"D" F,4!>)! |"Em"!p! G,4!<(! B,4 | %4
 E2 D2"A7" CB, A,2!<)! |"D"!mp! D2 F,2"A" A,4 |"CHm" B,2 D,2"F#m"!>(! F,4 | %7
"G" G,2 D,2!>)!"D/A"!mp! F,4 |"E7" E,2!<(! ^G,2"A7" A,A,B,C!<)! |"D"!mp! DCDE F4 | %10
"A7"!>(! C2 A,B, C2 A,2 |"CHm" B,C D2!>)!!p! B,2 F,D, |"F#m"!>(! F,2 A,2 C,2!>)!!p! F,2 | %13
"G"!<(! G,4 B,4 | D4 G!<)!F!mf!ED |"Em" E2 B,2"A7" A,2 C2 |"D" D2 A,2!>(! DCDF!>)! | %17
"Em"!mp! E2 B,2"F#7" ^A,2 F,2 |"CHm" B,2 F,2 B,2 A,2 |"G" G,2 B,2"D/A"!<(! A,4 |1 %20
"E7" E,2 ^G,2!<)!"A7"!mf! A,2!mp! C2 :|2"A" C2"G" G,4"A7" A,2 ||"D"!mf! !fermata![DF]8 |] %23

